sites/Tartarya/images/main/forum-icon.svg

<svg width="30" height="30" viewBox="0 0 30 30" fill="none" xmlns="http://www.w3.org/2000/svg">
<path d="M15.9259 0C15.9259 0 13.1988 1.68692 12.3847 2.58326C11.5705 3.47959 10.9693 9.17773 10.9693 9.17773L11.0491 9.16795C10.07 9.79429 9.26596 10.6606 8.7127 11.6853C4.79174 12.729 3.05254 15.4001 3.05254 15.4001L0 14.7567L1.54144 17.4575C1.54144 17.4575 3.06344 18.233 4.91089 18.7035C6.26301 18.398 8.83998 19.1735 9.49643 19.3819C10.0896 20.0878 10.8186 20.6663 11.6398 21.0826C11.6458 21.1175 11.6503 21.1506 11.6584 21.1883C12.4248 24.7325 14.9343 26.493 14.9343 26.493L14.996 30L18.0735 26.9378L18.6441 24.0328L17.5201 21.2196C18.956 20.5732 20.1258 19.4491 20.8321 18.0373L25.2033 16.7072L27.5807 15.0756L30 15.4565C30 15.4565 28.6784 13.7912 27.7785 12.9021C26.908 12.0421 21.0364 11.56 20.6461 11.5287C20.0176 10.4342 19.1003 9.53516 17.9954 8.93049L18.0763 8.93668L16.6178 4.93674L15.2529 3.55877L15.9259 0ZM24.4397 3.90197L23.0498 6.5822C23.0498 6.5822 20.6805 6.34661 18.7073 7.28021L19.0333 8.05555L21.719 10.664L23.2865 10.812C23.2865 10.812 25.3161 8.05785 25.2171 6.66621C25.1323 5.473 24.4398 3.90199 24.4398 3.90199L24.4397 3.90197ZM6.80277 4.79949C5.86521 4.79164 2.34379 5.5305 2.34379 5.5305L5.83928 7.40806L6.02219 9.70621L6.88676 11.162L8.45053 10.1062C8.45053 10.1062 9.34703 8.87043 9.65274 8.55709C9.76793 7.68073 9.98347 6.22951 9.98347 6.22951C9.98347 6.22951 7.53656 4.80565 6.80273 4.79946L6.80277 4.79949ZM14.8073 9.29483C14.8131 9.29482 14.8189 9.29482 14.8248 9.29483C16.2668 9.29483 17.6498 9.89478 18.6695 10.9627C19.6892 12.0306 20.2621 13.479 20.2621 14.9893C20.2621 16.4995 19.6892 17.9479 18.6695 19.0159C17.6498 20.0838 16.2668 20.6837 14.8248 20.6837C13.3828 20.6837 11.9998 20.0838 10.9801 19.0159C9.96039 17.9479 9.38753 16.4995 9.3875 14.9893C9.38752 13.4822 9.95798 12.0365 10.9739 10.9692C11.9898 9.90177 13.3683 9.29968 14.8073 9.29483H14.8073ZM14.8004 10.6604C14.8004 10.6604 13.0486 14.8167 13.1137 15.796C13.1793 16.7817 14.9711 19.6877 14.9711 19.6877C14.9711 19.6877 16.4014 17.7787 16.5088 16.7936C16.6121 15.8465 15.8148 11.9289 14.8004 10.6605V10.6604ZM22.9883 18.7876L21.7047 19.1876C21.7047 19.1876 19.6368 21.5006 18.8122 22.0308C19.471 23.3866 20.1874 24.1056 22.1386 24.8507C24.3747 24.7724 26.1201 24.7486 26.1201 24.7486L23.622 22.4824L23.663 20.3187L22.9883 18.7876ZM6.35457 19.7717L4.80674 22.736L5.17203 25.9982C5.17203 25.9982 6.22525 24.4772 6.92616 23.7289C8.31676 23.5944 9.75048 23.2663 10.8029 22.2931C9.95065 21.5916 8.1119 19.948 8.1119 19.948L6.35457 19.7717Z" fill="#688494"/>
</svg>

<svg width="30" height="30" fill="none" xmlns="http://www.w3.org/2000/svg"><path d="M15.926 0s-2.727 1.687-3.541 2.583c-.815.897-1.416 6.595-1.416 6.595l.08-.01a6.852 6.852 0 0 0-2.336 2.517C4.792 12.73 3.053 15.4 3.053 15.4L0 14.757l1.541 2.7s1.522.776 3.37 1.246c1.352-.305 3.929.47 4.585.679a6.84 6.84 0 0 0 2.144 1.7c.006.035.01.069.018.106.767 3.545 3.276 5.305 3.276 5.305L14.996 30l3.077-3.062.571-2.905-1.124-2.813a6.849 6.849 0 0 0 3.312-3.183l4.371-1.33 2.378-1.631 2.419.38s-1.322-1.665-2.221-2.554c-.871-.86-6.743-1.342-7.133-1.373a6.849 6.849 0 0 0-2.65-2.599l.08.007-1.458-4-1.365-1.378L15.926 0Zm8.514 3.902-1.39 2.68s-2.37-.235-4.343.698l.326.776 2.686 2.608 1.567.148s2.03-2.754 1.931-4.146c-.085-1.193-.777-2.764-.777-2.764Zm-17.637.897c-.938-.007-4.46.731-4.46.731L5.84 7.409l.183 2.298.865 1.456 1.564-1.056s.896-1.236 1.202-1.549c.115-.876.33-2.327.33-2.327S7.537 4.806 6.803 4.8Zm8.004 4.496h.018c1.442 0 2.825.6 3.845 1.668a5.834 5.834 0 0 1 1.592 4.026c0 1.51-.573 2.959-1.593 4.027a5.316 5.316 0 0 1-3.844 1.668c-1.442 0-2.825-.6-3.845-1.668a5.834 5.834 0 0 1-1.593-4.027c0-1.507.571-2.953 1.587-4.02a5.317 5.317 0 0 1 3.833-1.674ZM14.8 10.66s-1.751 4.157-1.686 5.136c.065.986 1.857 3.892 1.857 3.892s1.43-1.91 1.538-2.894c.103-.947-.694-4.865-1.709-6.133Zm8.188 8.128-1.283.4s-2.068 2.313-2.893 2.843c.659 1.356 1.375 2.075 3.327 2.82a207.58 207.58 0 0 1 3.981-.102l-2.498-2.267.041-2.163-.675-1.531Zm-16.633.984-1.548 2.964.365 3.262s1.053-1.52 1.754-2.27c1.39-.134 2.824-.462 3.877-1.435-.852-.701-2.691-2.345-2.691-2.345l-1.757-.176Z" fill="#688494"/></svg>
